X:1
T:Sleep Comes Softly
C:Paul Rosen
S:Copyright 2004, Paul Rosen
M:6/8
L:1/8
Q:108
R:New Age Jig
K:Aphrygian
"Am"A,2C B,A,G,|"C7"C2E GAB|"F"c2A "Gm"BAG|"F"FGF"Em"E3|
"Dm"A,2D "C"EDC|"Dm"D2F "Gm"GAB|"Am"cBA"Em"G2E|[1"Am"A3E3:|[2"Am"A3c3|
|:"Dm"d2e fed|"Am7"gfe "Dm"fed|dfe dcA|"Bb"BcB"Am"A3|
"Dm"d2e fed|"Am7"gfe "Dm"fed|"Am"cdc "Em"AGE|[1"Am"A3c3:|[2"Am"A3E3|
